src/img/guides/adonis-white.svg

<svg width="40" height="40" viewBox="0 0 40 40" fill="none" xmlns="http://www.w3.org/2000/svg">
<path fill-rule="evenodd" clip-rule="evenodd" d="M6.66667 20C6.66667 30.7535 9.24644 33.3333 20 33.3333C30.7535 33.3333 33.3333 30.7535 33.3333 20C33.3333 9.24644 30.7535 6.66667 20 6.66667C9.24644 6.66667 6.66667 9.24644 6.66667 20ZM12.0435 22.7699L16.2254 13.2654C16.9314 11.6633 18.2892 10.7943 20 10.7943C21.7108 10.7943 23.0685 11.6633 23.7747 13.2654L27.9565 22.7699C28.1467 23.2315 28.3095 23.8288 28.3095 24.3448C28.3095 26.7073 26.653 28.3638 24.2905 28.3638C23.4858 28.3638 22.8467 28.1585 22.1998 27.9507C21.5369 27.7377 20.8658 27.522 20 27.522C19.1442 27.522 18.4567 27.7397 17.7808 27.9535C17.1269 28.1603 16.4839 28.3638 15.7094 28.3638C13.3469 28.3638 11.6904 26.7073 11.6904 24.3448C11.6904 23.8288 11.8534 23.2315 12.0435 22.7699ZM20 14.922L15.8724 24.2635C17.0944 23.6932 18.5065 23.4217 20 23.4217C21.4393 23.4217 22.9057 23.6932 24.0733 24.2635L20 14.922Z" fill="white"/>
</svg>

<svg width="40" height="40" viewBox="0 0 40 40" fill="none" xmlns="http://www.w3.org/2000/svg">
<path fill="#fff" fill-rule="evenodd" d="M6.665 20c0 10.755 2.58 13.335 13.335 13.335S33.335 30.755 33.335 20 30.755 6.665 20 6.665 6.665 9.245 6.665 20Zm5.377 2.77 4.183-9.505c.706-1.603 2.064-2.472 3.775-2.472 1.711 0 3.069.87 3.775 2.472l4.183 9.505c.19.462.353 1.06.353 1.575 0 2.363-1.657 4.02-4.02 4.02-.805 0-1.444-.205-2.091-.413-.663-.213-1.334-.43-2.2-.43-.856 0-1.544.219-2.22.433-.654.206-1.297.41-2.071.41-2.363 0-4.02-1.657-4.02-4.02 0-.516.163-1.113.353-1.575ZM20 14.921l-4.128 9.343c1.222-.57 2.634-.842 4.128-.842 1.44 0 2.906.272 4.074.842L20 14.921Z" clip-rule="evenodd"/>
</svg>
